dist/svg/recreational-vehicle-line.svg

<svg xmlns="http://www.w3.org/2000/svg" viewBox="0 0 24 24"><path d="M3.805 3.28c-.391.092-.633.519-.524.924.059.218.288.453.5.511.225.063 14.213.063 14.438 0a.84.84 0 0 0 .306-.191.739.739 0 0 0-.348-1.246c-.194-.045-14.181-.043-14.372.002m.812 3.003c-.584.069-1.098.328-1.552.781a2.74 2.74 0 0 0-.696 1.116l-.109.32-.011 4.772c-.008 3.436.001 4.818.034 4.938a.82.82 0 0 0 .498.505c.088.025.473.045.864.045h.704l.085.233c.186.51.673 1.082 1.171 1.378.14.083.399.199.575.257.277.091.387.105.82.105s.543-.014.82-.105a3.5 3.5 0 0 0 .575-.257c.498-.296.985-.868 1.171-1.378l.085-.233h4.698l.085.233c.186.51.673 1.082 1.171 1.378.14.083.399.199.575.257.277.091.387.105.82.105s.543-.014.82-.105a3.5 3.5 0 0 0 .575-.257c.498-.296.985-.868 1.171-1.378l.085-.233h.476c.533 0 .69-.043.902-.249a.8.8 0 0 0 .17-.248c.022-.068.24-1.113.484-2.323.491-2.442.538-2.815.42-3.32-.067-.282-1.803-4.512-2.037-4.96-.077-.148-.255-.371-.465-.582-.285-.286-.403-.372-.721-.527a4 4 0 0 0-.58-.236c-.157-.039-1.624-.052-6.8-.058-3.63-.004-6.728.007-6.883.026m13.606 1.604c.211.111.452.348.55.541.197.386 1.837 4.411 1.87 4.59.037.202.011.367-.343 2.15a197 197 0 0 1-.405 2.002c-.013.045-.06.07-.13.07-.098 0-.118-.024-.177-.21-.18-.568-.74-1.221-1.268-1.478-.464-.227-.744-.288-1.32-.288s-.856.061-1.32.288c-.528.257-1.088.91-1.268 1.478l-.067.21h-4.69l-.067-.21c-.18-.568-.74-1.221-1.268-1.478-.464-.227-.744-.288-1.32-.288s-.856.061-1.32.288c-.528.257-1.088.91-1.268 1.478l-.067.21H3.76v-4.235c0-4.637-.012-4.395.236-4.733.14-.19.38-.373.59-.45.131-.048 1.158-.056 6.794-.049l6.64.007zm-4.403.389a.73.73 0 0 0-.538.515c-.026.091-.042.787-.042 1.799v1.65l-4.13.001c-2.335 0-4.198.017-4.287.037a.739.739 0 0 0-.348 1.246.84.84 0 0 0 .306.191c.225.063 14.213.063 14.438 0a.84.84 0 0 0 .306-.191.739.739 0 0 0-.348-1.246c-.086-.02-1.115-.037-2.287-.037l-2.13-.001v-1.65c0-1.012-.016-1.708-.042-1.799a.8.8 0 0 0-.353-.448.95.95 0 0 0-.545-.067m-6.288 8.6c.235.114.478.357.595.596.133.27.133.787 0 1.057-.464.941-1.796.943-2.251.002-.314-.649.047-1.49.736-1.715.243-.08.692-.05.92.06m10 0c.235.114.478.357.595.596.133.27.133.787 0 1.057-.464.941-1.796.943-2.251.002-.314-.649.047-1.49.736-1.715.243-.08.692-.05.92.06" fill-rule="evenodd"/></svg>

<svg fill="none" xmlns="http://www.w3.org/2000/svg" viewBox="0 0 24 24"><path d="M3.805 3.280 C 3.414 3.372,3.172 3.799,3.281 4.204 C 3.340 4.422,3.569 4.657,3.781 4.715 C 4.006 4.778,17.994 4.778,18.219 4.715 C 18.307 4.691,18.444 4.605,18.525 4.524 C 18.938 4.111,18.742 3.409,18.177 3.278 C 17.983 3.233,3.996 3.235,3.805 3.280 M4.617 6.283 C 4.033 6.352,3.519 6.611,3.065 7.064 C 2.732 7.396,2.521 7.735,2.369 8.180 L 2.260 8.500 2.249 13.272 C 2.241 16.708,2.250 18.090,2.283 18.210 C 2.340 18.422,2.572 18.657,2.781 18.715 C 2.869 18.740,3.254 18.760,3.645 18.760 L 4.349 18.760 4.434 18.993 C 4.620 19.503,5.107 20.075,5.605 20.371 C 5.745 20.454,6.004 20.570,6.180 20.628 C 6.457 20.719,6.567 20.733,7.000 20.733 C 7.433 20.733,7.543 20.719,7.820 20.628 C 7.996 20.570,8.255 20.454,8.395 20.371 C 8.893 20.075,9.380 19.503,9.566 18.993 L 9.651 18.760 12.000 18.760 L 14.349 18.760 14.434 18.993 C 14.620 19.503,15.107 20.075,15.605 20.371 C 15.745 20.454,16.004 20.570,16.180 20.628 C 16.457 20.719,16.567 20.733,17.000 20.733 C 17.433 20.733,17.543 20.719,17.820 20.628 C 17.996 20.570,18.255 20.454,18.395 20.371 C 18.893 20.075,19.380 19.503,19.566 18.993 L 19.651 18.760 20.127 18.760 C 20.660 18.760,20.817 18.717,21.029 18.511 C 21.100 18.442,21.177 18.330,21.199 18.263 C 21.221 18.195,21.439 17.150,21.683 15.940 C 22.174 13.498,22.221 13.125,22.103 12.620 C 22.036 12.338,20.300 8.108,20.066 7.660 C 19.989 7.512,19.811 7.289,19.601 7.078 C 19.316 6.792,19.198 6.706,18.880 6.551 C 18.671 6.449,18.410 6.343,18.300 6.315 C 18.143 6.276,16.676 6.263,11.500 6.257 C 7.870 6.253,4.772 6.264,4.617 6.283 M18.223 7.887 C 18.434 7.998,18.675 8.235,18.773 8.428 C 18.970 8.814,20.610 12.839,20.643 13.018 C 20.680 13.220,20.654 13.385,20.300 15.168 C 20.088 16.231,19.906 17.131,19.895 17.170 C 19.882 17.215,19.835 17.240,19.765 17.240 C 19.667 17.240,19.647 17.216,19.588 17.030 C 19.408 16.462,18.848 15.809,18.320 15.552 C 17.856 15.325,17.576 15.264,17.000 15.264 C 16.424 15.264,16.144 15.325,15.680 15.552 C 15.152 15.809,14.592 16.462,14.412 17.030 L 14.345 17.240 12.000 17.240 L 9.655 17.240 9.588 17.030 C 9.408 16.462,8.848 15.809,8.320 15.552 C 7.856 15.325,7.576 15.264,7.000 15.264 C 6.424 15.264,6.144 15.325,5.680 15.552 C 5.152 15.809,4.592 16.462,4.412 17.030 L 4.345 17.240 4.053 17.240 L 3.760 17.240 3.760 13.005 C 3.760 8.368,3.748 8.610,3.996 8.272 C 4.136 8.082,4.376 7.899,4.586 7.822 C 4.717 7.774,5.744 7.766,11.380 7.773 L 18.020 7.780 18.223 7.887 M13.820 8.276 C 13.554 8.342,13.353 8.534,13.282 8.791 C 13.256 8.882,13.240 9.578,13.240 10.590 L 13.240 12.240 9.110 12.241 C 6.775 12.241,4.912 12.258,4.823 12.278 C 4.258 12.409,4.062 13.111,4.475 13.524 C 4.556 13.605,4.693 13.691,4.781 13.715 C 5.006 13.778,18.994 13.778,19.219 13.715 C 19.307 13.691,19.444 13.605,19.525 13.524 C 19.938 13.111,19.742 12.409,19.177 12.278 C 19.091 12.258,18.062 12.241,16.890 12.241 L 14.760 12.240 14.760 10.590 C 14.760 9.578,14.744 8.882,14.718 8.791 C 14.670 8.617,14.514 8.419,14.365 8.343 C 14.224 8.271,13.967 8.240,13.820 8.276 M7.532 16.876 C 7.767 16.990,8.010 17.233,8.127 17.472 C 8.260 17.742,8.260 18.259,8.127 18.529 C 7.663 19.470,6.331 19.472,5.876 18.531 C 5.562 17.882,5.923 17.041,6.612 16.816 C 6.855 16.736,7.304 16.766,7.532 16.876 M17.532 16.876 C 17.767 16.990,18.010 17.233,18.127 17.472 C 18.260 17.742,18.260 18.259,18.127 18.529 C 17.663 19.470,16.331 19.472,15.876 18.531 C 15.562 17.882,15.923 17.041,16.612 16.816 C 16.855 16.736,17.304 16.766,17.532 16.876 " stroke="none" fill-rule="evenodd" fill="currentColor"/></svg>
